X: 14
M:2/4
L:1/8
K:G
|:gGgG|gG G2|F/2G/2A/2B/2 A2|F/2G/2A/2B/2 A2|
gGgG|gGGA|B2 AG|DG G2:|
|:Bded|Bded|edcB|AD D2|

